icons/dashboard-square.svg

<svg width="24" height="24" viewBox="0 0 24 24" fill="none" xmlns="http://www.w3.org/2000/svg">
<path fill-rule="evenodd" clip-rule="evenodd" d="M9 3.75C6.11421 3.75 3.75 6.11421 3.75 9V15C3.75 15.209 3.76186 15.4153 3.78498 15.618C5.01588 14.1473 6.89093 13.25 9.00003 13.25H11.6893L14.4697 10.4697C14.7626 10.1768 15.2374 10.1768 15.5303 10.4697C15.8232 10.7626 15.8232 11.2374 15.5303 11.5303L13.8107 13.25H15C17.0725 13.25 18.9428 14.1786 20.2067 15.6732C20.2352 15.4527 20.25 15.228 20.25 15V9C20.25 6.11421 17.8858 3.75 15 3.75H9ZM12 14.75H9.00003C6.9263 14.75 5.19622 15.8328 4.34763 17.4615C5.21233 19.1189 6.93687 20.25 9 20.25H15C16.9987 20.25 18.7473 19.1158 19.6334 17.4598C18.6946 15.8151 16.9591 14.75 15 14.75H12ZM2.25 9C2.25 5.28579 5.28579 2.25 9 2.25H15C18.7142 2.25 21.75 5.28579 21.75 9V15C21.75 18.7142 18.7142 21.75 15 21.75H9C5.17764 21.75 2.25 18.706 2.25 15V9Z" fill="black"/>
</svg>

<svg xmlns="http://www.w3.org/2000/svg" fill="none" viewBox="0 0 24 24">
  <path fill="#000" fill-rule="evenodd" d="M9 3.75C6.114 3.75 3.75 6.114 3.75 9v6c0 .209.012.415.035.618C5.015 14.148 6.891 13.25 9 13.25h2.69l2.78-2.78a.75.75 0 1 1 1.06 1.06l-1.72 1.72H15a6.8 6.8 0 0 1 5.207 2.423A5.25 5.25 0 0 0 20.25 15V9c0-2.886-2.364-5.25-5.25-5.25H9Zm3 11H9c-2.074 0-3.804 1.083-4.652 2.712C5.212 19.119 6.937 20.25 9 20.25h6a5.267 5.267 0 0 0 4.633-2.79c-.938-1.645-2.674-2.71-4.633-2.71h-3ZM2.25 9c0-3.714 3.036-6.75 6.75-6.75h6c3.714 0 6.75 3.036 6.75 6.75v6c0 3.714-3.036 6.75-6.75 6.75H9c-3.822 0-6.75-3.044-6.75-6.75V9Z" clip-rule="evenodd"/>
</svg>
